X: 1
T: Matt People's
M: 4/4
L: 1/8
R: reel
K: Amin
^G|:A2 eA cAeA|B2 gB (3cBA GB|A2 eA cAeA|BAGB A3:|
^g|ae e2 agef|gB B2 g3 ^g|ae e2 aged|(3Bcd gd BGBd|
ae e2 agef|gB B2 g3 ^g|afge fded|(3Bcd gB BAGB|
